build/img/icon-button-menu.svg

<svg width="23" height="15" viewBox="0 0 23 15" fill="none" xmlns="http://www.w3.org/2000/svg">
<path fill-rule="evenodd" clip-rule="evenodd" d="M0 14.0728H22.5V13.0728H0V14.0728ZM0 7.82271H22.5V6.82271H0V7.82271ZM0 0.572754V1.57275H22.5V0.572754H0Z" fill="black"/>
</svg>

<svg width="23" height="15" fill="none" xmlns="http://www.w3.org/2000/svg"><path fill-rule="evenodd" clip-rule="evenodd" d="M0 14.073h22.5v-1H0v1zm0-6.25h22.5v-1H0v1zm0-7.25v1h22.5v-1H0z" fill="#000"/></svg>
